src/pages/home/assets/drone.svg

<?xml version="1.0" encoding="UTF-8" standalone="no"?>
<svg
   width="100%"
   height="100%"
   viewBox="0 0 898 898"
   version="1.1"
   xml:space="preserve"
   style="fill-rule:evenodd;clip-rule:evenodd;stroke-linejoin:round;stroke-miterlimit:2;"
   id="svg1743"
   sodipodi:docname="drone.svg"
   inkscape:version="1.2 (dc2aedaf03, 2022-05-15)"
   xmlns:inkscape="http://www.inkscape.org/namespaces/inkscape"
   xmlns:sodipodi="http://sodipodi.sourceforge.net/DTD/sodipodi-0.dtd"
   xmlns="http://www.w3.org/2000/svg"
   xmlns:svg="http://www.w3.org/2000/svg"><defs
   id="defs1747">
        
        
        
    
            
        
                
            <clipPath
   clipPathUnits="userSpaceOnUse"
   id="clipPath6557"><rect
     x="141"
     y="23.000217"
     width="897.63702"
     height="897.26599"
     id="rect6559" /></clipPath></defs><sodipodi:namedview
   id="namedview1745"
   pagecolor="#ffffff"
   bordercolor="#666666"
   borderopacity="1.0"
   inkscape:showpageshadow="2"
   inkscape:pageopacity="0.0"
   inkscape:pagecheckerboard="0"
   inkscape:deskcolor="#d1d1d1"
   showgrid="false"
   inkscape:zoom="0.45489978"
   inkscape:cx="390.19584"
   inkscape:cy="812.26683"
   inkscape:window-width="1276"
   inkscape:window-height="1396"
   inkscape:window-x="1920"
   inkscape:window-y="20"
   inkscape:window-maximized="1"
   inkscape:current-layer="svg1743" />
    <rect
   x="0"
   y="0.00020094604"
   width="897.63702"
   height="897.26599"
   style="fill:none"
   id="rect1731" /><path
   d="m 845.571,527.099 c 35.477,0.239 74.632,12.282 105.817,33.072 17.428,11.619 35.093,28.203 47.86,44.931 18.142,23.767 31.352,54.108 36.962,84.898 2.92,15.962 3.14,52.631 0.41,67.46 -9.69,52.653 -37.647,96.932 -80.696,127.797 -12.315,8.83 -37.427,21.422 -51.934,26.042 -22.179,7.062 -36.53,9.46 -58.692,9.552 l -1.115,0.003 c -1.12,10e-4 -2.262,-0.004 -3.426,-0.014 -10.042,-0.088 -19.832,-0.337 -21.757,-0.554 -1.925,-0.217 -8.9,-1.48 -15.5,-2.807 -51.408,-10.334 -95.874,-40.067 -125.42,-83.862 -23.474,-34.794 -35.976,-82.308 -32.132,-122.117 1.361,-14.099 1.695,-15.5 3.694,-15.5 l 0.033,0.002 c 1.483,0.156 15.818,10.341 77.021,54.704 9.53,6.908 10.335,7.764 12.315,13.093 13.19,35.498 46.476,63.218 83.708,69.711 6.411,1.118 12.801,1.662 19.111,1.665 l 0.652,-10e-4 c 49.151,-0.261 93.534,-33.214 107.072,-82.281 3.607,-13.076 4.432,-32.706 1.955,-46.542 -6.93,-38.71 -30.931,-68.926 -66.77,-84.061 l -8.976,-3.79 -13.718,-19 C 854.5,589.05 840.603,569.86 831.163,556.855 821.723,543.85 814,532.518 814,531.672 c 0,-1.969 1.215,-2.281 14.5,-3.73 5.249,-0.572 10.631,-0.851 16.104,-0.847 z M 308.778,919.5 C 228.821,906.579 165.79,849.316 146.58,772.143 142.058,753.977 141.5,748.576 141.5,723 c 0,-21.666 0.268,-25.825 2.32,-35.956 6.338,-31.304 20.027,-61.009 39.199,-85.064 8.909,-11.177 28.432,-29.965 38.852,-37.389 25.707,-18.314 55.487,-30.432 87.733,-35.7 16.529,-2.7 54.339,-1.219 56.46,2.212 0.374,0.605 -7.04,11.742 -16.475,24.748 -9.435,13.007 -23.511,32.431 -31.28,43.165 l -14.127,19.516 -7.905,3.232 c -32.869,13.439 -57.547,41.601 -66.24,75.592 -3.146,12.302 -4.27,26.013 -3.013,36.766 4.737,40.51 27.191,72.867 62.476,90.03 14.405,7.007 26.709,9.965 44,10.578 10.609,0.376 16.18,0.089 23,-1.186 24.303,-4.542 45.749,-16.174 61.765,-33.501 10.431,-11.285 15.813,-20.083 24.19,-39.543 0.964,-2.239 12.114,-10.805 43.929,-33.75 23.45,-16.912 43.259,-30.75 44.018,-30.75 1.722,0 2.262,2.135 3.687,14.582 2.042,17.837 -0.188,42.55 -5.766,63.918 -12.694,48.619 -45.407,92.276 -88.773,118.47 -18.538,11.197 -42.893,20.594 -65.05,25.097 -14.126,2.872 -51.744,3.691 -65.722,1.433 z M 759,549.14 l 14.927,20.68 c 8.21,11.374 27.448,37.98 42.75,59.123 l 27.823,38.444 7.945,1.33 c 31.736,5.315 52.537,37.281 45.018,69.18 -4.769,20.228 -22.909,37.94 -43.164,42.145 -8.105,1.682 -23.329,0.748 -30.688,-1.883 -19.957,-7.135 -34.827,-25.402 -37.412,-45.958 l -0.699,-5.558 -23,-16.642 c -12.65,-9.153 -39.304,-28.423 -59.23,-42.822 L 667.04,641 H 513.231 l -13.866,9.935 c -7.626,5.465 -34.316,24.702 -59.312,42.75 l -45.447,32.815 -1.334,7.989 c -2.932,17.547 -14.113,32.457 -30.272,40.364 -4.675,2.288 -10.924,4.607 -13.886,5.153 -7.525,1.388 -19.631,1.127 -25.895,-0.559 -25.36,-6.827 -42.152,-28.904 -42.204,-55.487 -0.055,-27.954 19.345,-50.576 47.485,-55.373 l 7,-1.193 17,-23.505 c 9.35,-12.927 28.587,-39.536 42.75,-59.131 L 421,549.132 V 394.86 l -14.927,-20.68 c -8.21,-11.374 -27.455,-38.004 -42.766,-59.178 l -27.839,-38.498 -5.511,-0.688 c -20.274,-2.532 -37.785,-16.504 -45.671,-36.439 -2.47,-6.242 -2.721,-8.077 -2.718,-19.877 0.003,-11.264 0.316,-13.801 2.349,-19 9.085,-23.231 29.598,-37.437 54.123,-37.485 9.376,-0.019 17.269,1.987 26.118,6.637 8.973,4.715 14.721,9.893 20.301,18.286 5.305,7.981 7.263,12.911 8.946,22.535 l 1.22,6.973 22.937,16.61 c 12.616,9.136 39.249,28.386 59.184,42.777 L 512.992,303 h 153.827 l 11.34,-8.154 c 74.684,-53.698 107.054,-77.298 107.299,-78.228 0.161,-0.615 0.774,-4.242 1.361,-8.061 1.605,-10.439 6.996,-20.476 15.586,-29.023 28.124,-27.98 75.147,-19.47 91.481,16.555 15.753,34.742 -6.037,74.295 -43.886,79.659 l -5.499,0.779 -17.001,23.544 c -9.35,12.95 -28.587,39.576 -42.75,59.171 L 759,394.869 Z M 317.5,415.886 C 283.23,412.671 247.056,398.343 218.273,376.581 181.512,348.788 154.377,306.017 145.099,261.247 140.7,240.016 139.646,211.071 142.545,191.128 153.986,112.446 212.419,47.828 289.5,28.617 305.584,24.608 319.284,23 337.344,23 c 43.233,0 79.895,11.7 115.913,36.99 10.885,7.644 33.878,30.174 42.1,41.255 22.752,30.66 35.659,65.52 38.697,104.51 1.045,13.415 0.186,34.231 -1.67,40.495 -1.112,3.751 0.836,5.044 -69.71,-46.25 -18.705,-13.601 -20.052,-14.795 -21.711,-19.25 -11.201,-30.072 -36.976,-55.442 -66.624,-65.579 -13.839,-4.732 -20.109,-5.671 -37.839,-5.669 -15.524,0.002 -17.863,0.243 -26.942,2.778 -19.112,5.335 -35.262,14.466 -48.894,27.645 -16.897,16.336 -27.162,35.041 -32.148,58.584 -1.979,9.341 -1.957,30.943 0.041,41.48 4.039,21.288 14.249,40.743 29.785,56.754 11.356,11.702 28.559,22.866 41.907,27.196 3.276,1.062 5.5,3.641 17.587,20.388 7.611,10.545 21.561,29.813 31.001,42.818 9.44,13.005 17.163,24.332 17.163,25.171 0,1.858 -2.296,2.369 -16.5,3.673 -12.395,1.137 -18.998,1.116 -32,-0.103 z m 510.663,0.073 c -9.911,-1.039 -13.983,-1.859 -14.659,-2.953 -0.312,-0.504 2.515,-5.099 6.281,-10.211 3.766,-5.112 17.91,-24.595 31.432,-43.295 l 24.585,-34 9.849,-4.246 c 54.867,-23.654 80.875,-84.175 60.346,-140.425 -12.829,-35.153 -42.618,-60.963 -80.179,-69.472 -10.178,-2.305 -12.779,-2.513 -25.818,-2.064 -11.078,0.381 -16.978,1.121 -25,3.133 -33.415,8.38 -61.937,33.324 -75.202,65.768 l -3.285,8.036 -42.752,30.885 C 670.247,234.102 650.341,248 649.524,248 c -3.987,0 -5.845,-32.28 -3.062,-53.189 8.214,-61.704 43.89,-115.097 97.568,-146.02 18.651,-10.744 36.982,-17.645 59.813,-22.519 11.797,-2.518 14.356,-2.704 37.657,-2.737 26.067,-0.036 29.34,0.306 49,5.123 50.928,12.48 95.88,46.651 122.64,93.228 23.89,41.583 31.7,91.318 21.82,138.97 -10.42,50.255 -41.766,95.616 -85.984,124.422 -35.473,23.109 -81.513,34.802 -120.813,30.681 z"
   style="fill:#4f86d4;fill-opacity:1"
   id="path1736"
   transform="translate(-141,-23.000016)"
   clip-path="url(#clipPath6557)" />
            
        
</svg>

<?xml version="1.0" encoding="UTF-8" standalone="no"?>
<!DOCTYPE svg PUBLIC "-//W3C//DTD SVG 1.1//EN" "http://www.w3.org/Graphics/SVG/1.1/DTD/svg11.dtd">
<svg width="100%" height="100%" viewBox="0 0 898 898" version="1.1" xmlns="http://www.w3.org/2000/svg" xmlns:xlink="http://www.w3.org/1999/xlink" xml:space="preserve" xmlns:serif="http://www.serif.com/" style="fill-rule:evenodd;clip-rule:evenodd;stroke-linejoin:round;stroke-miterlimit:2;">
    <g id="Artboard1" transform="matrix(1,0,0,1,-141.5,-23.5328)">
        <rect x="141.5" y="23.533" width="897.637" height="897.266" style="fill:none;"/>
        <clipPath id="_clip1">
            <rect x="141.5" y="23.533" width="897.637" height="897.266"/>
        </clipPath>
        <g clip-path="url(#_clip1)">
            <g transform="matrix(1,0,0,1,0.5,0.532784)">
                <path d="M845.571,527.099C881.048,527.338 920.203,539.381 951.388,560.171C968.816,571.79 986.481,588.374 999.248,605.102C1017.39,628.869 1030.6,659.21 1036.21,690C1039.13,705.962 1039.35,742.631 1036.62,757.46C1026.93,810.113 998.973,854.392 955.924,885.257C943.609,894.087 918.497,906.679 903.99,911.299C881.811,918.361 867.46,920.759 845.298,920.851L844.183,920.854C843.063,920.855 841.921,920.85 840.757,920.84C830.715,920.752 820.925,920.503 819,920.286C817.075,920.069 810.1,918.806 803.5,917.479C752.092,907.145 707.626,877.412 678.08,833.617C654.606,798.823 642.104,751.309 645.948,711.5C647.309,697.401 647.643,696 649.642,696L649.675,696.002C651.158,696.158 665.493,706.343 726.696,750.706C736.226,757.614 737.031,758.47 739.011,763.799C752.201,799.297 785.487,827.017 822.719,833.51C829.13,834.628 835.52,835.172 841.83,835.175L842.482,835.174C891.633,834.913 936.016,801.96 949.554,752.893C953.161,739.817 953.986,720.187 951.509,706.351C944.579,667.641 920.578,637.425 884.739,622.29L875.763,618.5L862.045,599.5C854.5,589.05 840.603,569.86 831.163,556.855C821.723,543.85 814,532.518 814,531.672C814,529.703 815.215,529.391 828.5,527.942C833.749,527.37 839.131,527.091 844.604,527.095L845.571,527.099ZM308.778,919.5C228.821,906.579 165.79,849.316 146.58,772.143C142.058,753.977 141.5,748.576 141.5,723C141.5,701.334 141.768,697.175 143.82,687.044C150.158,655.74 163.847,626.035 183.019,601.98C191.928,590.803 211.451,572.015 221.871,564.591C247.578,546.277 277.358,534.159 309.604,528.891C326.133,526.191 363.943,527.672 366.064,531.103C366.438,531.708 359.024,542.845 349.589,555.851C340.154,568.858 326.078,588.282 318.309,599.016L304.182,618.532L296.277,621.764C263.408,635.203 238.73,663.365 230.037,697.356C226.891,709.658 225.767,723.369 227.024,734.122C231.761,774.632 254.215,806.989 289.5,824.152C303.905,831.159 316.209,834.117 333.5,834.73C344.109,835.106 349.68,834.819 356.5,833.544C380.803,829.002 402.249,817.37 418.265,800.043C428.696,788.758 434.078,779.96 442.455,760.5C443.419,758.261 454.569,749.695 486.384,726.75C509.834,709.838 529.643,696 530.402,696C532.124,696 532.664,698.135 534.089,710.582C536.131,728.419 533.901,753.132 528.323,774.5C515.629,823.119 482.916,866.776 439.55,892.97C421.012,904.167 396.657,913.564 374.5,918.067C360.374,920.939 322.756,921.758 308.778,919.5ZM759,549.14L773.927,569.82C782.137,581.194 801.375,607.8 816.677,628.943L844.5,667.387L852.445,668.717C884.181,674.032 904.982,705.998 897.463,737.897C892.694,758.125 874.554,775.837 854.299,780.042C846.194,781.724 830.97,780.79 823.611,778.159C803.654,771.024 788.784,752.757 786.199,732.201L785.5,726.643L762.5,710.001C749.85,700.848 723.196,681.578 703.27,667.179L667.04,641L513.231,641L499.365,650.935C491.739,656.4 465.049,675.637 440.053,693.685L394.606,726.5L393.272,734.489C390.34,752.036 379.159,766.946 363,774.853C358.325,777.141 352.076,779.46 349.114,780.006C341.589,781.394 329.483,781.133 323.219,779.447C297.859,772.62 281.067,750.543 281.015,723.96C280.96,696.006 300.36,673.384 328.5,668.587L335.5,667.394L352.5,643.889C361.85,630.962 381.087,604.353 395.25,584.758L421,549.132L421,394.86L406.073,374.18C397.863,362.806 378.618,336.176 363.307,315.002L335.468,276.504L329.957,275.816C309.683,273.284 292.172,259.312 284.286,239.377C281.816,233.135 281.565,231.3 281.568,219.5C281.571,208.236 281.884,205.699 283.917,200.5C293.002,177.269 313.515,163.063 338.04,163.015C347.416,162.996 355.309,165.002 364.158,169.652C373.131,174.367 378.879,179.545 384.459,187.938C389.764,195.919 391.722,200.849 393.405,210.473L394.625,217.446L417.562,234.056C430.178,243.192 456.811,262.442 476.746,276.833L512.992,303L666.819,303L678.159,294.846C752.843,241.148 785.213,217.548 785.458,216.618C785.619,216.003 786.232,212.376 786.819,208.557C788.424,198.118 793.815,188.081 802.405,179.534C830.529,151.554 877.552,160.064 893.886,196.089C909.639,230.831 887.849,270.384 850,275.748L844.501,276.527L827.5,300.071C818.15,313.021 798.913,339.647 784.75,359.242L759,394.869L759,549.14ZM317.5,415.886C283.23,412.671 247.056,398.343 218.273,376.581C181.512,348.788 154.377,306.017 145.099,261.247C140.7,240.016 139.646,211.071 142.545,191.128C153.986,112.446 212.419,47.828 289.5,28.617C305.584,24.608 319.284,23 337.344,23C380.577,23 417.239,34.7 453.257,59.99C464.142,67.634 487.135,90.164 495.357,101.245C518.109,131.905 531.016,166.765 534.054,205.755C535.099,219.17 534.24,239.986 532.384,246.25C531.272,250.001 533.22,251.294 462.674,200C443.969,186.399 442.622,185.205 440.963,180.75C429.762,150.678 403.987,125.308 374.339,115.171C360.5,110.439 354.23,109.5 336.5,109.502C320.976,109.504 318.637,109.745 309.558,112.28C290.446,117.615 274.296,126.746 260.664,139.925C243.767,156.261 233.502,174.966 228.516,198.509C226.537,207.85 226.559,229.452 228.557,239.989C232.596,261.277 242.806,280.732 258.342,296.743C269.698,308.445 286.901,319.609 300.249,323.939C303.525,325.001 305.749,327.58 317.836,344.327C325.447,354.872 339.397,374.14 348.837,387.145C358.277,400.15 366,411.477 366,412.316C366,414.174 363.704,414.685 349.5,415.989C337.105,417.126 330.502,417.105 317.5,415.886ZM828.163,415.959C818.252,414.92 814.18,414.1 813.504,413.006C813.192,412.502 816.019,407.907 819.785,402.795C823.551,397.683 837.695,378.2 851.217,359.5L875.802,325.5L885.651,321.254C940.518,297.6 966.526,237.079 945.997,180.829C933.168,145.676 903.379,119.866 865.818,111.357C855.64,109.052 853.039,108.844 840,109.293C828.922,109.674 823.022,110.414 815,112.426C781.585,120.806 753.063,145.75 739.798,178.194L736.513,186.23L693.761,217.115C670.247,234.102 650.341,248 649.524,248C645.537,248 643.679,215.72 646.462,194.811C654.676,133.107 690.352,79.714 744.03,48.791C762.681,38.047 781.012,31.146 803.843,26.272C815.64,23.754 818.199,23.568 841.5,23.535C867.567,23.499 870.84,23.841 890.5,28.658C941.428,41.138 986.38,75.309 1013.14,121.886C1037.03,163.469 1044.84,213.204 1034.96,260.856C1024.54,311.111 993.194,356.472 948.976,385.278C913.503,408.387 867.463,420.08 828.163,415.959Z" style="fill:rgb(52,108,188);"/>
            </g>
        </g>
    </g>
</svg>
